X: 10088
T: RALPH'S HORNPIPE
C: Bob McQuillen 2 May 93
B: Bob's Note Book 10 #88
%R: hornpipe, reel
Z: 2020 John Chambers <jc:trillian.mit.edu>
M: C
L: 1/8
K: G	% and D
GA \
| BGEG DGBG | EGcE DGBd | cedc BGcB | ABcA FDGA |\
| BGEG DGBG | EGce d2Bd | gedB cAFG | A2G2 G2  :| [K:D]
|: AG \
| FDFA d2fd | B2dB A2AG | FDFA dfed | c2e2 e2AG |\
| FDFA dfed | BdBG A2FA | BGBd ceag | f2d2 d2  :|
%%begintext align
%% I've known Ralph
%% Jones for years. He's Treasurer of the New England
%% Folk Festival Association, and he plays great flute with
%% Sylvia Miskoe, Cal Howard, and others, in "White Cockade".
%% I'm real glad you finally have one of these little tunes, Ralph.
%% Hope it sounds OK on your flute -
%%endtext

%%sep 1 1 500

%%sep 1 1 500

